X: 192156
T: Say Ninety-Nine
C: Joe Liddy
S: "The Leitrim Fiddler" (Dublin 1981)
Z: BB
L: 1/8
M: 4/4
R: reel
Q: 1/4 = 170
K: Ador
ed |c2 BG AE (3FED | EFGE ABcd | ecgc aceg | agec d2 ed |
cdBc AE (3FED | EAAB cdef | gaed cAGA | EFGE A2 :|
cd | eaag edcd | ecgd aceg | a2 ag edcd | efge a2 bg |
agec dfed c2 BG AE (3FED | cdef gaed | cAGE A2 || 
cd | eaag abag | eged cAAB | c2 cd efge | agec d2 cd | 
ecdB cABG | ABcd efge | aged cded | cABG A4 ||
%%%%%%%%%%%%%%%%%%%%%%%%%
